X:1
T:Brahms Standchen
T:Brahms Standchen
L:1/8
Q:1/4=80
M:4/4
K:D
V:1 treble nm="Piano" snm="Pno."
V:1
 A,2 | D2 E2 FABd | A2 FG A2 FA | B2 F2 A4- | A2 z2 z2 z F | B2 ^A2 F^DE^G | B2 ^d2 F2 z B | %7
 c4 B2 z2 | c4- cBGC | D2 z2 z4 | E>D EF G2 DF | G2 D2 z2 z G | G>=F GA _B2 FA | _B2 =F2 ^A2 ^FA | %14
 c3 ^B ^G2 ^A2 | F2 FE D3 A, |] %16

